dist/svg/guitar-duo-tone.svg

<svg xmlns="http://www.w3.org/2000/svg" viewBox="0 0 24 24"><path d="M17.156 3.253a.79.79 0 0 0-.428.663c-.026.363.038.493.457.925l.373.384-.198.195-.199.196-.35-.343c-.43-.418-.555-.489-.871-.491a.846.846 0 0 0-.86.834c.001.289.079.427.471.832l.385.396-1.044 1.044-1.044 1.043-.123-.088a4 4 0 0 0-.466-.248 4.25 4.25 0 0 0-4.108.311c-.555.369-.996.849-1.391 1.514-.413.695-.891 1.051-1.72 1.28a4.6 4.6 0 0 0-2.319 1.492c-.67.809-1.011 1.774-1.015 2.868-.004.976.222 1.729.768 2.56.244.371 1.535 1.662 1.906 1.906.98.644 2.14.911 3.198.737 1.517-.25 2.741-1.132 3.394-2.445.145-.291.23-.522.411-1.112.129-.418.394-.849.678-1.099.108-.094.349-.264.537-.376a4.7 4.7 0 0 0 1.069-.844c1.182-1.263 1.462-3.117.71-4.704a3 3 0 0 0-.246-.453c-.064-.07-.016-.125.979-1.12l1.046-1.046.397.385c.31.302.435.395.571.432.68.183 1.298-.468 1.055-1.111-.05-.134-.178-.3-.433-.561l-.362-.37.195-.198.196-.199.384.373c.432.419.562.483.925.457.446-.032.769-.39.765-.847-.003-.297-.1-.463-.505-.863l-.342-.339.358-.366c.198-.201.389-.435.424-.521a.836.836 0 0 0-.7-1.168c-.363-.026-.493.038-.924.456l-.385.373-.337-.343c-.186-.188-.41-.376-.498-.417a.95.95 0 0 0-.784.016m-4.893 6.805c.404.128.734.345 1.084.714.51.536.714 1.039.711 1.748-.002.482-.069.752-.29 1.18-.191.37-.606.784-1.055 1.054-1.076.646-1.659 1.392-2.035 2.605-.228.737-.417 1.061-.864 1.482-.508.479-1.137.723-1.874.728-.852.005-1.387-.238-2.167-.981-.91-.868-1.23-1.396-1.332-2.198-.098-.78.194-1.671.731-2.224.424-.436.739-.618 1.472-.845 1.202-.374 1.942-.949 2.599-2.023.461-.754.98-1.149 1.733-1.321.346-.08.891-.045 1.287.081m-.992 1.641a.78.78 0 0 0-.485.31c-.476.624.106 1.526.873 1.355a.844.844 0 0 0 .669-.85.84.84 0 0 0-1.057-.815m-5.025 3.289a1 1 0 0 0-.435.446.98.98 0 0 0 .023.712c.099.19 1.855 1.941 2.04 2.033.163.082.507.087.692.01.172-.073.389-.287.46-.457.077-.184.066-.522-.023-.712-.102-.219-1.85-1.955-2.052-2.039-.193-.08-.536-.077-.705.007"/></svg>

<svg fill="none" xmlns="http://www.w3.org/2000/svg" viewBox="0 0 24 24"><path d="M17.156 3.253 C 16.901 3.388,16.749 3.622,16.728 3.916 C 16.702 4.279,16.766 4.409,17.185 4.841 L 17.558 5.225 17.360 5.420 L 17.161 5.616 16.811 5.273 C 16.381 4.855,16.256 4.784,15.940 4.782 C 15.467 4.779,15.079 5.155,15.080 5.616 C 15.081 5.905,15.159 6.043,15.551 6.448 L 15.936 6.844 14.892 7.888 L 13.848 8.931 13.725 8.843 C 13.657 8.795,13.447 8.683,13.259 8.595 C 11.952 7.983,10.358 8.103,9.151 8.906 C 8.596 9.275,8.155 9.755,7.760 10.420 C 7.347 11.115,6.869 11.471,6.040 11.700 C 5.122 11.955,4.316 12.473,3.721 13.192 C 3.051 14.001,2.710 14.966,2.706 16.060 C 2.702 17.036,2.928 17.789,3.474 18.620 C 3.718 18.991,5.009 20.282,5.380 20.526 C 6.360 21.170,7.520 21.437,8.578 21.263 C 10.095 21.013,11.319 20.131,11.972 18.818 C 12.117 18.527,12.202 18.296,12.383 17.706 C 12.512 17.288,12.777 16.857,13.061 16.607 C 13.169 16.513,13.410 16.343,13.598 16.231 C 14.036 15.969,14.369 15.707,14.667 15.387 C 15.849 14.124,16.129 12.270,15.377 10.683 C 15.278 10.474,15.167 10.270,15.131 10.230 C 15.067 10.160,15.115 10.105,16.110 9.110 L 17.156 8.064 17.553 8.449 C 17.863 8.751,17.988 8.844,18.124 8.881 C 18.804 9.064,19.422 8.413,19.179 7.770 C 19.129 7.636,19.001 7.470,18.746 7.209 L 18.384 6.839 18.579 6.641 L 18.775 6.442 19.159 6.815 C 19.591 7.234,19.721 7.298,20.084 7.272 C 20.530 7.240,20.853 6.882,20.849 6.425 C 20.846 6.128,20.749 5.962,20.344 5.562 L 20.002 5.223 20.360 4.857 C 20.558 4.656,20.749 4.422,20.784 4.336 C 21.008 3.800,20.654 3.209,20.084 3.168 C 19.721 3.142,19.591 3.206,19.160 3.624 L 18.775 3.997 18.438 3.654 C 18.252 3.466,18.028 3.278,17.940 3.237 C 17.710 3.129,17.378 3.136,17.156 3.253 M12.263 10.058 C 12.667 10.186,12.997 10.403,13.347 10.772 C 13.857 11.308,14.061 11.811,14.058 12.520 C 14.056 13.002,13.989 13.272,13.768 13.700 C 13.577 14.070,13.162 14.484,12.713 14.754 C 11.637 15.400,11.054 16.146,10.678 17.359 C 10.450 18.096,10.261 18.420,9.814 18.841 C 9.306 19.320,8.677 19.564,7.940 19.569 C 7.088 19.574,6.553 19.331,5.773 18.588 C 4.863 17.720,4.543 17.192,4.441 16.390 C 4.343 15.610,4.635 14.719,5.172 14.166 C 5.596 13.730,5.911 13.548,6.644 13.321 C 7.846 12.947,8.586 12.372,9.243 11.298 C 9.704 10.544,10.223 10.149,10.976 9.977 C 11.322 9.897,11.867 9.932,12.263 10.058 M11.271 11.699 C 11.045 11.757,10.915 11.840,10.786 12.009 C 10.310 12.633,10.892 13.535,11.659 13.364 C 12.063 13.273,12.328 12.937,12.328 12.514 C 12.328 11.960,11.812 11.562,11.271 11.699 M6.246 14.988 C 6.067 15.076,5.881 15.267,5.811 15.434 C 5.728 15.633,5.739 15.962,5.834 16.146 C 5.933 16.336,7.689 18.087,7.874 18.179 C 8.037 18.261,8.381 18.266,8.566 18.189 C 8.738 18.116,8.955 17.902,9.026 17.732 C 9.103 17.548,9.092 17.210,9.003 17.020 C 8.901 16.801,7.153 15.065,6.951 14.981 C 6.758 14.901,6.415 14.904,6.246 14.988 " stroke="none" fill-rule="evenodd"/></svg>
